X:1
T:always with me
M:3/4
L:1/8
V:1
Q:1/4=80
K:C
|z4CD|"C"ECG3E|"G"D2G2D2|"Am"CA,E3C|"Em"B,4CB,|
|"F"A,2B,2CD|"C"G,2C2DE|"Dm"F2FEDC|"G"D4CD|
|"C"ECG3E|"G"D2G2D2|"Am"CA,A,2B,C|"Em"G,4zG,|
|"F"A,2B,2CD|"C"G,2C2DE|"Dm"F2FEDC|"C"C6|
|"C"z4EF|"C"G2G2G2|"G"G2GAGF|"Am"E2E2E2|
|"Em"E2EFED|"F"C2C2CB,|"C"A,2B,2B,C|"Dm"D2DEDE|
|"G"D4EF|"C"G2G2G2|"G"G2GAGF|"Am"E2E2E2|
|"Em"EFEDCB,|"F"A,2A,B,CD|"C"G,2C2DE|"Dm"D3DDC|
|"C"C6|